symbols-de/shields/motorway_10x4_z18.svg

<?xml version="1.0" encoding="UTF-8" standalone="no"?>
<svg
   xmlns:dc="http://purl.org/dc/elements/1.1/"
   xmlns:cc="http://creativecommons.org/ns#"
   xmlns:rdf="http://www.w3.org/1999/02/22-rdf-syntax-ns#"
   xmlns:svg="http://www.w3.org/2000/svg"
   xmlns="http://www.w3.org/2000/svg"
   xmlns:sodipodi="http://sodipodi.sourceforge.net/DTD/sodipodi-0.dtd"
   xmlns:inkscape="http://www.inkscape.org/namespaces/inkscape"
   width="100%"
   height="100%"
   viewBox="0 0 81.0 50.0"
   id="svg2"
   version="1.1"
   inkscape:version="0.91 r13725"
   sodipodi:docname="autobahn_10x4_z18.svg">
  <metadata
     id="metadata9">
    <rdf:RDF>
      <cc:Work
         rdf:about="">
        <dc:format>image/svg+xml</dc:format>
        <dc:type
           rdf:resource="http://purl.org/dc/dcmitype/StillImage" />
        <dc:title></dc:title>
      </cc:Work>
    </rdf:RDF>
  </metadata>
  <defs
     id="defs7" />
  <sodipodi:namedview
     pagecolor="#ffffff"
     bordercolor="#666666"
     borderopacity="1"
     objecttolerance="10"
     gridtolerance="10"
     guidetolerance="10"
     inkscape:pageopacity="0"
     inkscape:pageshadow="2"
     inkscape:window-width="926"
     inkscape:window-height="728"
     id="namedview5"
     showgrid="false"
     inkscape:zoom="4.3580247"
     inkscape:cx="40.5"
     inkscape:cy="25"
     inkscape:window-x="249"
     inkscape:window-y="131"
     inkscape:window-maximized="0"
     inkscape:current-layer="svg2" />
  <path
     style="fill:#365eaf;fill-opacity:1;stroke:#0528a2;stroke-width:1;stroke-miterlimit:4;stroke-dasharray:none;stroke-opacity:1"
     d="m 40.5,0.49999994 c -0.573475,0 -0.859376,0.00392 -0.859376,0.0140031 L 1.7920679,2.6288117 C 0.93185204,2.7302199 0.49999999,2.8835072 0.49999999,3.0863193 c 0,14.6091217 0,29.2182427 0,43.8273657 0,0.202811 0.43184767,0.356104 1.29206791,0.457506 l 37.8485561,2.114805 c 0,0.01013 0.285908,0.014 0.859376,0.014 0.573477,0 0.859375,-0.0039 0.859375,-0.014 l 37.848553,-2.114805 c 0.860215,-0.101408 1.292071,-0.254695 1.292071,-0.457506 0,-14.609122 0,-29.218244 0,-43.8273657 0,-0.2028121 -0.431856,-0.3561037 -1.292071,-0.4575076 L 41.359375,0.51400415 c 0,-0.0101267 -0.285908,-0.0140031 -0.859375,-0.0140031 z"
     id="path6"
     inkscape:connector-curvature="0"
     sodipodi:nodetypes="sccccccsccccccs" />
</svg>

<?xml version="1.0" encoding="UTF-8"?>
<svg xmlns="http://www.w3.org/2000/svg" xmlns:xlink="http://www.w3.org/1999/xlink" width="78pt" height="66pt" viewBox="0 0 78 66" version="1.1">
<g id="surface1">
<path style="fill-rule:nonzero;fill:rgb(21.176471%,36.862745%,68.627451%);fill-opacity:1;stroke-width:1;stroke-linecap:butt;stroke-linejoin:miter;stroke:rgb(1.960784%,15.686275%,63.529412%);stroke-opacity:1;stroke-miterlimit:4;" d="M 40.5 0.500118 C 39.928035 0.500118 39.640024 0.503078 39.640024 0.514915 L 1.792969 2.627841 C 0.932993 2.731416 0.498948 2.882339 0.498948 3.086529 C 0.498948 17.696496 0.498948 32.303504 0.498948 46.913471 C 0.498948 47.117661 0.932993 47.268584 1.792969 47.372159 L 39.640024 49.485085 C 39.640024 49.496922 39.928035 49.499882 40.5 49.499882 C 41.071965 49.499882 41.359976 49.496922 41.359976 49.485085 L 79.207031 47.372159 C 80.067007 47.268584 80.501052 47.117661 80.501052 46.913471 C 80.501052 32.303504 80.501052 17.696496 80.501052 3.086529 C 80.501052 2.882339 80.067007 2.731416 79.207031 2.627841 L 41.359976 0.514915 C 41.359976 0.503078 41.071965 0.500118 40.5 0.500118 Z M 40.5 0.500118 " transform="matrix(0.962963,0,0,1.32,0,0)"/>
</g>
</svg>
